X:1
T:Edinburgh Volunteers March
Z:Jack Campin: "Embro, Embro", transcription (c) 2001
F:16army/abc/EV-Aird5.abc
S:NLS Inglis MS 305
N:in Aird volume V, slightly simplified
M:C|
L:1/8
Q:1/2=72
K:G
G2 G>B d2d2|e>def   g2  b>g|(d>e)fg  (d>e)fg  |feag (gf).e.d|
g2 G>B d2d2|e>def   g2  d>g| b>agf  {f}e>def  |d2d>d d2z2  :|
d>ed>e fee2|f>gf>g (ag) g2 | abc'a     bgdg   |feag (gf).e.d|
g2 G>B d2d2|d>edc   Bd  e=f| e>d ec'  (ba).g.f|g2g>g g2    :|

